X: 34797
T: Road To Skye, The
R: jig
M: 6/8
K: Gmajor
|:GFG D~D2|GBd ~e2d|gdB BAB|cBc E2F|
GFG D~D2|GBd ~e2d|gdB BAB|1 cEF GBA:|2 cEF G2D||
|:GBd GBd|GBd cBA|GBd eag|fd^c def|
geg fdf|e^ce dBd|cBc Adc|1 BGF G2D:|2 BGF GBA||

